;FLAVOR:Marlin
;TIME:263
;Filament used: 0.214654m
;Layer height: 0.2
;Generated with Cura_SteamEngine 3.6.0
M82 ;absolute extrusion mode
G21 ;metric values
G90 ;absolute positioning
M82 ;set extruder to absolute mode
M107 ;start with the fan off
G28 X0 Y0 ;move X/Y to min endstops
G28 Z0 ;move Z to min endstops
M190 S65
M104 S210.0
G28 Z0 ;move Z to min endstops
G29 ;autolevel
M140 S65 ;heat
M104 S210.0
G1 Z15.0 F9000 ;move the platform down 15mm
G0 F3000 X0 Y0 ; go to 0 0
M105
M190 S65
M109 S210.0 ;finish heating
G92 E0 ;zero the extruded length
G1 F200 E3 ;extrude 3mm of feed stock
G92 E0 ;zero the extruded length again
G1 F9000
M117 Printing...
G92 E0
G1 F1200 E-4
;LAYER_COUNT:2
;LAYER:0
M107
G0 F3600 X82.245 Y82.519 Z0.2
;TYPE:SKIRT
G1 F1200 E0
G1 F1350 X82.639 Y82.142 E0.02071
G1 X83.084 Y81.826 E0.04144
G1 X83.569 Y81.579 E0.06211
G1 X84.086 Y81.405 E0.08283
G1 X84.623 Y81.309 E0.10355
G1 X85.009 Y81.289 E0.11823
G1 X134.991 Y81.29 E2.01662
G1 X135.535 Y81.33 E2.03734
G1 X136.067 Y81.449 E2.05805
G1 X136.576 Y81.644 E2.07875
G1 X137.051 Y81.912 E2.09946
G1 X137.481 Y82.246 E2.12014
G1 X137.858 Y82.64 E2.14086
G1 X138.174 Y83.085 E2.16159
G1 X138.421 Y83.57 E2.18226
G1 X138.595 Y84.087 E2.20298
G1 X138.691 Y84.624 E2.2237
G1 X138.711 Y85.01 E2.23838
G1 X138.711 Y134.991 E4.13673
G1 X138.671 Y135.535 E4.15745
G1 X138.552 Y136.067 E4.17815
G1 X138.357 Y136.576 E4.19886
G1 X138.089 Y137.051 E4.21957
G1 X137.755 Y137.481 E4.24025
G1 X137.361 Y137.858 E4.26096
G1 X136.916 Y138.174 E4.28169
G1 X136.431 Y138.421 E4.30236
G1 X135.914 Y138.595 E4.32308
G1 X135.377 Y138.691 E4.3438
G1 X134.991 Y138.711 E4.35848
G1 X85.009 Y138.711 E6.25687
G1 X84.465 Y138.671 E6.27759
G1 X83.933 Y138.552 E6.2983
G1 X83.424 Y138.357 E6.319
G1 X82.949 Y138.089 E6.33972
G1 X82.519 Y137.755 E6.3604
G1 X82.142 Y137.361 E6.38111
G1 X81.826 Y136.916 E6.40184
G1 X81.579 Y136.431 E6.42251
G1 X81.405 Y135.914 E6.44323
G1 X81.309 Y135.377 E6.46395
G1 X81.289 Y134.991 E6.47863
G1 X81.289 Y85.009 E8.37702
G1 X81.329 Y84.465 E8.39774
G1 X81.448 Y83.933 E8.41844
G1 X81.643 Y83.424 E8.43915
G1 X81.911 Y82.949 E8.45986
G1 X82.245 Y82.519 E8.48054
G0 F3600 X82.719 Y82.717
G1 F1350 X83.106 Y82.387 E8.49986
G1 X83.54 Y82.121 E8.51919
G1 X84.01 Y81.927 E8.5385
G1 X84.505 Y81.808 E8.55784
G1 X85.009 Y81.769 E8.57704
G1 X134.991 Y81.77 E10.47543
G1 X135.498 Y81.81 E10.49475
G1 X135.993 Y81.929 E10.51408
G1 X136.463 Y82.124 E10.53341
G1 X136.896 Y82.39 E10.55271
G1 X137.283 Y82.72 E10.57203
G1 X137.613 Y83.107 E10.59135
G1 X137.879 Y83.541 E10.61068
G1 X138.073 Y84.011 E10.62999
G1 X138.192 Y84.506 E10.64933
G1 X138.231 Y85.01 E10.66853
G1 X138.231 Y134.991 E12.56688
G1 X138.191 Y135.498 E12.5862
G1 X138.072 Y135.993 E12.60553
G1 X137.877 Y136.463 E12.62486
G1 X137.611 Y136.896 E12.64416
G1 X137.281 Y137.283 E12.66348
G1 X136.894 Y137.613 E12.6828
G1 X136.46 Y137.879 E12.70213
G1 X135.99 Y138.073 E12.72144
G1 X135.495 Y138.192 E12.74078
G1 X134.991 Y138.231 E12.75998
G1 X85.009 Y138.231 E14.65837
G1 X84.502 Y138.191 E14.67769
G1 X84.007 Y138.072 E14.69702
G1 X83.537 Y137.877 E14.71635
G1 X83.104 Y137.611 E14.73565
G1 X82.717 Y137.281 E14.75497
G1 X82.387 Y136.894 E14.77429
G1 X82.121 Y136.46 E14.79362
G1 X81.927 Y135.99 E14.81293
G1 X81.808 Y135.495 E14.83227
G1 X81.769 Y134.991 E14.85147
G1 X81.769 Y85.009 E16.74986
G1 X81.809 Y84.502 E16.76918
G1 X81.928 Y84.007 E16.78851
G1 X82.123 Y83.537 E16.80784
G1 X82.389 Y83.104 E16.82714
G1 X82.719 Y82.717 E16.84646
G1 F1200 E12.84646
;MESH:single_square_0.2mm_height_bed_leveling_test.stl
G0 F3600 X135.653 Y84.347
G0 X135.665 Y134.76
G0 X134.76 Y134.76
;TYPE:WALL-OUTER
G1 F1200 E16.84646
G1 F1350 X85.24 Y134.76 E18.7273
G1 X85.24 Y85.24 E20.60815
G1 X134.76 Y85.24 E22.48899
G1 X134.76 Y134.76 E24.36983
G0 F3600 X134.56 Y134.76
G0 X134.232 Y134.232
G0 X134.28 Y134.28
;TYPE:WALL-INNER
G1 F1350 X85.72 Y134.28 E26.21422
G1 X85.72 Y85.72 E28.0586
G1 X134.28 Y85.72 E29.90298
G1 X134.28 Y134.28 E31.74736
G0 F3600 X133.8 Y133.8
G1 F1350 X86.2 Y133.8 E33.55528
G1 X86.2 Y86.2 E35.3632
G1 X133.8 Y86.2 E37.17112
G1 X133.8 Y133.8 E38.97904
G1 F1200 E34.97904
G0 F3600 X135.665 Y133.8
G0 X135.665 Y86.679
G0 X133.319 Y86.679
;TYPE:SKIN
G1 F1200 E38.97904
G1 F1350 X132.839 Y86.679 E38.99727
G1 X133.319 Y87.159 E39.02305
G1 X133.319 Y87.838 E39.04884
G1 X132.161 Y86.679 E39.11107
G1 X131.482 Y86.679 E39.13686
G1 X133.319 Y88.517 E39.23556
G1 X133.319 Y89.195 E39.26131
G1 X130.803 Y86.679 E39.39645
G1 X130.124 Y86.679 E39.42224
G1 X133.319 Y89.874 E39.59386
G1 X133.319 Y90.553 E39.61965
G1 X129.445 Y86.679 E39.82774
G1 X128.766 Y86.679 E39.85352
G1 X133.319 Y91.232 E40.09808
G1 X133.319 Y91.911 E40.12387
G1 X128.088 Y86.679 E40.40488
G1 X127.409 Y86.679 E40.43067
G1 X133.319 Y92.589 E40.74812
G1 X133.319 Y93.268 E40.77391
G1 X126.73 Y86.679 E41.12783
G1 X126.051 Y86.679 E41.15362
G1 X133.319 Y93.947 E41.54401
G1 X133.319 Y94.626 E41.5698
G1 X125.372 Y86.679 E41.99666
G1 X124.694 Y86.679 E42.02242
G1 X133.319 Y95.305 E42.48573
G1 X133.319 Y95.984 E42.51152
G1 X124.015 Y86.679 E43.0113
G1 X123.336 Y86.679 E43.03709
G1 X133.319 Y96.662 E43.57331
G1 X133.319 Y97.341 E43.5991
G1 X122.657 Y86.679 E44.1718
G1 X121.978 Y86.679 E44.19759
G1 X133.319 Y98.02 E44.80676
G1 X133.319 Y98.699 E44.83255
G1 X121.299 Y86.679 E45.47819
G1 X120.621 Y86.679 E45.50394
G1 X133.319 Y99.378 E46.18603
G1 X133.319 Y100.057 E46.21182
G1 X119.942 Y86.679 E46.93038
G1 X119.263 Y86.679 E46.95617
G1 X133.319 Y100.735 E47.71117
G1 X133.319 Y101.414 E47.73696
G1 X118.584 Y86.679 E48.52843
G1 X117.905 Y86.679 E48.55422
G1 X133.319 Y102.093 E49.38217
G1 X133.319 Y102.772 E49.40796
G1 X117.226 Y86.679 E50.27238
G1 X116.548 Y86.679 E50.29813
G1 X133.319 Y103.451 E51.19899
G1 X133.319 Y104.129 E51.22474
G1 X115.869 Y86.679 E52.16205
G1 X115.19 Y86.679 E52.18784
G1 X133.319 Y104.808 E53.16162
G1 X133.319 Y105.487 E53.18741
G1 X114.511 Y86.679 E54.19766
G1 X113.832 Y86.679 E54.22345
G1 X133.319 Y106.166 E55.27018
G1 X133.319 Y106.845 E55.29597
G1 X113.154 Y86.679 E56.37913
G1 X112.475 Y86.679 E56.40492
G1 X133.319 Y107.524 E57.52456
G1 X133.319 Y108.202 E57.55032
G1 X111.796 Y86.679 E58.7064
G1 X111.117 Y86.679 E58.73219
G1 X133.319 Y108.881 E59.92475
G1 X133.319 Y109.56 E59.95054
G1 X110.438 Y86.679 E61.17957
G1 X109.759 Y86.679 E61.20536
G1 X133.319 Y110.239 E62.47086
G1 X133.319 Y110.918 E62.49665
G1 X109.081 Y86.679 E63.79859
G1 X108.402 Y86.679 E63.82438
G1 X133.319 Y111.597 E65.1628
G1 X133.319 Y112.275 E65.18855
G1 X107.723 Y86.679 E66.56341
G1 X107.044 Y86.679 E66.5892
G1 X133.319 Y112.954 E68.00054
G1 X133.319 Y113.633 E68.02633
G1 X106.365 Y86.679 E69.47413
G1 X105.687 Y86.679 E69.49988
G1 X133.319 Y114.312 E70.98413
G1 X133.319 Y114.991 E71.00992
G1 X105.008 Y86.679 E72.53065
G1 X104.329 Y86.679 E72.55643
G1 X133.319 Y115.669 E74.1136
G1 X133.319 Y116.348 E74.13939
G1 X103.65 Y86.679 E75.73303
G1 X102.971 Y86.679 E75.75882
G1 X133.319 Y117.027 E77.38893
G1 X133.319 Y117.706 E77.41472
G1 X102.292 Y86.679 E79.0813
G1 X101.614 Y86.679 E79.10705
G1 X133.319 Y118.385 E80.81008
G1 X133.319 Y119.064 E80.83587
G1 X100.935 Y86.679 E82.57537
G1 X100.256 Y86.679 E82.60116
G1 X133.319 Y119.742 E84.3771
G1 X133.319 Y120.421 E84.40289
G1 X99.577 Y86.679 E86.21531
G1 X98.898 Y86.679 E86.2411
G1 X133.319 Y121.1 E88.08999
G1 X133.319 Y121.779 E88.11578
G1 X98.219 Y86.679 E90.00114
G1 X97.541 Y86.679 E90.02689
G1 X133.319 Y122.458 E91.94869
G1 X133.319 Y123.136 E91.97444
G1 X96.862 Y86.679 E93.93269
G1 X96.183 Y86.679 E93.95848
G1 X133.319 Y123.815 E95.9532
G1 X133.319 Y124.494 E95.97899
G1 X95.504 Y86.679 E98.01019
G1 X94.825 Y86.679 E98.03598
G1 X133.319 Y125.173 E100.10364
G1 X133.319 Y125.852 E100.12943
G1 X94.147 Y86.679 E102.23354
G1 X93.468 Y86.679 E102.25933
G1 X133.319 Y126.531 E104.39991
G1 X133.319 Y127.209 E104.42566
G1 X92.789 Y86.679 E106.60269
G1 X92.11 Y86.679 E106.62848
G1 X133.319 Y127.888 E108.84198
G1 X133.319 Y128.567 E108.86777
G1 X91.431 Y86.679 E111.11774
G1 X90.752 Y86.679 E111.14353
G1 X133.319 Y129.246 E113.42997
G1 X133.319 Y129.925 E113.45576
G1 X90.074 Y86.679 E115.77864
G1 X89.395 Y86.679 E115.80443
G1 X133.319 Y130.604 E118.16379
G1 X133.319 Y131.282 E118.18954
G1 X88.716 Y86.679 E120.58535
G1 X88.037 Y86.679 E120.61114
G1 X133.319 Y131.961 E123.04341
G1 X133.319 Y132.64 E123.0692
G1 X87.358 Y86.679 E125.53795
G1 X86.679 Y86.679 E125.56374
G1 X133.319 Y133.319 E128.06895
G1 X132.64 Y133.319 E128.09474
G1 X86.679 Y87.358 E130.56349
G1 X86.679 Y88.037 E130.58928
G1 X131.961 Y133.319 E133.02156
G1 X131.282 Y133.319 E133.04734
G1 X86.679 Y88.716 E135.44315
G1 X86.679 Y89.395 E135.46894
G1 X130.604 Y133.319 E137.8283
G1 X129.925 Y133.319 E137.85409
G1 X86.679 Y90.074 E140.17697
G1 X86.679 Y90.752 E140.20272
G1 X129.246 Y133.319 E142.48917
G1 X128.567 Y133.319 E142.51495
G1 X86.679 Y91.431 E144.76492
G1 X86.679 Y92.11 E144.79071
G1 X127.888 Y133.319 E147.00421
G1 X127.209 Y133.319 E147.03
G1 X86.679 Y92.789 E149.20703
G1 X86.679 Y93.468 E149.23282
G1 X126.531 Y133.319 E151.3734
G1 X125.852 Y133.319 E151.39919
G1 X86.679 Y94.147 E153.5033
G1 X86.679 Y94.825 E153.52905
G1 X125.173 Y133.319 E155.59671
G1 X124.494 Y133.319 E155.6225
G1 X86.679 Y95.504 E157.6537
G1 X86.679 Y96.183 E157.67949
G1 X123.815 Y133.319 E159.67421
G1 X123.136 Y133.319 E159.7
G1 X86.679 Y96.862 E161.65825
G1 X86.679 Y97.541 E161.68404
G1 X122.458 Y133.319 E163.60584
G1 X121.779 Y133.319 E163.63163
G1 X86.679 Y98.219 E165.51699
G1 X86.679 Y98.898 E165.54278
G1 X121.1 Y133.319 E167.39167
G1 X120.421 Y133.319 E167.41746
G1 X86.679 Y99.577 E169.22987
G1 X86.679 Y100.256 E169.25566
G1 X119.742 Y133.319 E171.03161
G1 X119.064 Y133.319 E171.05736
G1 X86.679 Y100.935 E172.79686
G1 X86.679 Y101.614 E172.82265
G1 X118.385 Y133.319 E174.52567
G1 X117.706 Y133.319 E174.55146
G1 X86.679 Y102.292 E176.21805
G1 X86.679 Y102.971 E176.24384
G1 X117.027 Y133.319 E177.87395
G1 X116.348 Y133.319 E177.89974
G1 X86.679 Y103.65 E179.49338
G1 X86.679 Y104.329 E179.51916
G1 X115.669 Y133.319 E181.07633
G1 X114.991 Y133.319 E181.10208
G1 X86.679 Y105.008 E182.62281
G1 X86.679 Y105.687 E182.6486
G1 X114.312 Y133.319 E184.13285
G1 X113.633 Y133.319 E184.15864
G1 X86.679 Y106.365 E185.60644
G1 X86.679 Y107.044 E185.63223
G1 X112.954 Y133.319 E187.04357
G1 X112.275 Y133.319 E187.06935
G1 X86.679 Y107.723 E188.44422
G1 X86.679 Y108.402 E188.47001
G1 X111.597 Y133.319 E189.80842
G1 X110.918 Y133.319 E189.83421
G1 X86.679 Y109.081 E191.13616
G1 X86.679 Y109.759 E191.16191
G1 X110.239 Y133.319 E192.42741
G1 X109.56 Y133.319 E192.4532
G1 X86.679 Y110.438 E193.68223
G1 X86.679 Y111.117 E193.70802
G1 X108.881 Y133.319 E194.90058
G1 X108.202 Y133.319 E194.92637
G1 X86.679 Y111.796 E196.08245
G1 X86.679 Y112.475 E196.10824
G1 X107.524 Y133.319 E197.22788
G1 X106.845 Y133.319 E197.25367
G1 X86.679 Y113.154 E198.33684
G1 X86.679 Y113.832 E198.36259
G1 X106.166 Y133.319 E199.40931
G1 X105.487 Y133.319 E199.4351
G1 X86.679 Y114.511 E200.44536
G1 X86.679 Y115.19 E200.47114
G1 X104.808 Y133.319 E201.44492
G1 X104.129 Y133.319 E201.47071
G1 X86.679 Y115.869 E202.40802
G1 X86.679 Y116.548 E202.43381
G1 X103.451 Y133.319 E203.33468
G1 X102.772 Y133.319 E203.36046
G1 X86.679 Y117.226 E204.22488
G1 X86.679 Y117.905 E204.25067
G1 X102.093 Y133.319 E205.07862
G1 X101.414 Y133.319 E205.10441
G1 X86.679 Y118.584 E205.89588
G1 X86.679 Y119.263 E205.92167
G1 X100.735 Y133.319 E206.67668
G1 X100.057 Y133.319 E206.70243
G1 X86.679 Y119.942 E207.42099
G1 X86.679 Y120.621 E207.44678
G1 X99.378 Y133.319 E208.12886
G1 X98.699 Y133.319 E208.15465
G1 X86.679 Y121.299 E208.80029
G1 X86.679 Y121.978 E208.82608
G1 X98.02 Y133.319 E209.43525
G1 X97.341 Y133.319 E209.46104
G1 X86.679 Y122.657 E210.03374
G1 X86.679 Y123.336 E210.05953
G1 X96.662 Y133.319 E210.59576
G1 X95.984 Y133.319 E210.62151
G1 X86.679 Y124.015 E211.12129
G1 X86.679 Y124.694 E211.14708
G1 X95.305 Y133.319 E211.61039
G1 X94.626 Y133.319 E211.63618
G1 X86.679 Y125.372 E212.06304
G1 X86.679 Y126.051 E212.08883
G1 X93.947 Y133.319 E212.47923
G1 X93.268 Y133.319 E212.50501
G1 X86.679 Y126.73 E212.85894
G1 X86.679 Y127.409 E212.88473
G1 X92.589 Y133.319 E213.20217
G1 X91.911 Y133.319 E213.22793
G1 X86.679 Y128.088 E213.50893
G1 X86.679 Y128.766 E213.53468
G1 X91.232 Y133.319 E213.77924
G1 X90.553 Y133.319 E213.80503
G1 X86.679 Y129.445 E214.01312
G1 X86.679 Y130.124 E214.03891
G1 X89.874 Y133.319 E214.21052
G1 X89.195 Y133.319 E214.23631
G1 X86.679 Y130.803 E214.37146
G1 X86.679 Y131.482 E214.39725
G1 X88.517 Y133.319 E214.49595
G1 X87.838 Y133.319 E214.52174
G1 X86.679 Y132.161 E214.58396
G1 X86.679 Y132.839 E214.60972
G1 X87.159 Y133.319 E214.6355
G1 X86.679 Y133.319 E214.65373
;TIME_ELAPSED:263.135790
G1 F1200 E210.65373
M140 S0
M104 S0 ;extruder heater off
M140 S0 ;heated bed heater off (if you have it)
G91 ;relative positioning
G1 E-1 F300  ;retract the filament a bit before lifting the nozzle, to release some of the pressure
G1 Z+0.5 E-5 X-20 Y-20 F9000 ;move Z up a bit and retract filament even more
G28 X0 Y0 ;move X/Y to min endstops, so the head is out of the way
G1 Y220 F3000 ; move bed
M84 ;steppers off
G90 ;absolute positioning
M82 ;absolute extrusion mode
;End of Gcode
;SETTING_3 {"global_quality": "[general]\\nversion = 4\\nname = 0.2 d 35% infil\
;SETTING_3 \ndefinition = fdmprinter\\n\\n[metadata]\\ntype = quality_changes\\n
;SETTING_3 setting_version = 5\\nquality_type = draft\\n\\n[values]\\naccelerati
;SETTING_3 on_enabled = False\\nadaptive_layer_height_enabled = True\\nadaptive_
;SETTING_3 layer_height_threshold = 200.0\\nadhesion_type = skirt\\nbridge_setti
;SETTING_3 ngs_enabled = True\\ndefault_material_bed_temperature = 60\\njerk_ena
;SETTING_3 bled = False\\nlayer_height_0 = 0.2\\nmaterial_bed_temperature = =def
;SETTING_3 ault_material_bed_temperature\\nmaterial_bed_temperature_layer_0 = 65
;SETTING_3 \\nretraction_combing = infill\\nspeed_slowdown_layers = 4\\nsupport_
;SETTING_3 enable = True\\nsupport_tree_enable = False\\nsupport_type = everywhe
;SETTING_3 re\\n\\n", "extruder_quality": ["[general]\\nversion = 4\\nname = 0.2
;SETTING_3  d 35% infil\\ndefinition = fdmprinter\\n\\n[metadata]\\ntype = quali
;SETTING_3 ty_changes\\nposition = 0\\nsetting_version = 5\\nquality_type = draf
;SETTING_3 t\\n\\n[values]\\nalternate_extra_perimeter = True\\nconical_overhang
;SETTING_3 _enabled = False\\ncool_fan_full_layer = =max(1, int(math.floor((cool
;SETTING_3 _fan_full_at_height - resolveOrValue('layer_height_0')) / resolveOrVa
;SETTING_3 lue('layer_height')) + 2))\\ncool_fan_speed = 75.0\\ncool_fan_speed_m
;SETTING_3 ax = 80.0\\ndefault_material_print_temperature = 210.0\\nfill_outline
;SETTING_3 _gaps = True\\nfilter_out_tiny_gaps = False\\ngradual_infill_steps = 
;SETTING_3 0\\ngradual_support_infill_steps = 1\\ninfill_before_walls = False\\n
;SETTING_3 infill_enable_travel_optimization = True\\ninfill_overlap = 12\\ninfi
;SETTING_3 ll_pattern = ='lines' if infill_sparse_density > 25 else 'grid'\\ninf
;SETTING_3 ill_sparse_density = 15\\ninfill_support_enabled = False\\nironing_en
;SETTING_3 abled = False\\nironing_only_highest_layer = False\\nline_width = 0.4
;SETTING_3 8\\nmaterial_diameter = 1.73\\nmaterial_flow = 93\\nmaterial_print_te
;SETTING_3 mperature_layer_0 = =material_print_temperature\\nmeshfix_extensive_s
;SETTING_3 titching = True\\noptimize_wall_printing_order = True\\nouter_inset_f
;SETTING_3 irst = True\\nraft_speed = 10.0\\nretraction_amount = 4\\nretraction_
;SETTING_3 hop = 0.2\\nretraction_hop_enabled = False\\nretraction_hop_only_when
;SETTING_3 _collides = True\\nretraction_speed = 20\\nroofing_layer_count = 1\\n
;SETTING_3 skin_no_small_gaps_heuristic = False\\nskin_outline_count = 0\\nskin_
;SETTING_3 overlap = 8\\nskirt_line_count = 2\\nspeed_print = 45\\nsupport_angle
;SETTING_3  = 45\\nsupport_pattern = zigzag\\nsupport_wall_count = =1 if (suppor
;SETTING_3 t_pattern == 'grid' or support_pattern == 'triangles' or support_patt
;SETTING_3 ern == 'concentric') else 0\\ntop_bottom_pattern = zigzag\\ntop_botto
